views/assets/img/svg/kashbg-mobile-my-accounts.svg

<svg width="323" height="142" viewBox="0 0 323 142" fill="none" xmlns="http://www.w3.org/2000/svg">
<path d="M12.5795 137.876C11.6943 135.159 9.15816 132.047 4.3154 131.304C3.4126 131.172 2.61852 131.847 2.57978 132.751C2.56964 133.515 3.10606 134.191 3.86893 134.293C7.40301 134.84 9.13038 137.092 9.6766 138.791C9.89102 139.437 10.4985 139.854 11.1779 139.83C12.2003 139.822 12.8977 138.817 12.5795 137.876Z" fill="#FFCA3D"/>
<path d="M3.56295 16.3675C5.60685 14.3703 7.24704 10.6793 5.73303 6.02751C5.45546 5.16795 4.47136 4.76345 3.66389 5.14267C2.95735 5.47133 2.62931 6.25504 2.85641 6.9882C3.94145 10.4012 2.70502 12.9293 1.44335 14.1934C0.963911 14.6737 0.862978 15.4069 1.19101 16.0136C1.67045 16.8985 2.85641 17.0754 3.56295 16.3675Z" fill="#FF8166"/>
<path d="M306.943 138.838C309.693 138.029 312.873 135.576 313.731 130.773C313.882 129.888 313.226 129.054 312.318 129.003C311.561 128.953 310.879 129.484 310.728 130.242C310.072 133.756 307.801 135.425 306.085 135.93C305.429 136.133 305 136.714 305 137.397C305.025 138.383 305.984 139.116 306.943 138.838Z" fill="#FFCA3D"/>
<path d="M11.434 100.675C8.74554 99.7064 4.70865 99.8394 1.18225 103.23C0.529673 103.854 0.594659 104.916 1.28796 105.478C1.89176 105.97 2.74009 105.924 3.3009 105.4C5.89945 102.936 8.71371 102.946 10.4014 103.531C11.0427 103.753 11.7465 103.524 12.1495 102.964C12.7369 102.147 12.3791 101.002 11.434 100.675Z" fill="#FF8166"/>
<path d="M305.312 57.9984C307.356 56.0012 308.997 52.3101 307.483 47.6584C307.205 46.7988 306.221 46.3943 305.413 46.7735C304.707 47.1022 304.379 47.8859 304.606 48.6191C305.691 52.032 304.455 54.5602 303.193 55.8242C302.713 56.3046 302.612 57.0377 302.941 57.6445C303.42 58.504 304.606 58.681 305.312 57.9984Z" fill="#FF8166"/>
<path d="M45.8385 5.41715C48.1477 7.1006 52.0601 8.10434 56.3954 5.83809C57.1969 5.42149 57.4322 4.38384 56.924 3.65065C56.4824 3.00858 55.6551 2.81539 54.9699 3.16121C51.7848 4.79853 49.0863 3.99958 47.6301 2.9656C47.0767 2.57269 46.337 2.59505 45.7932 3.01938C45.0253 3.63504 45.048 4.83393 45.8385 5.41715Z" fill="#FF8166"/>
<path d="M276.066 9.83774C278.817 9.02874 281.996 6.57645 282.854 1.77301C283.006 0.888171 282.35 0.0538897 281.441 0.00332724C280.684 -0.0472353 280.003 0.483671 279.851 1.24211C279.195 4.7562 276.924 6.42477 275.208 6.93039C274.552 7.13264 274.123 7.71411 274.123 8.3967C274.149 9.38267 275.108 10.1158 276.066 9.83774Z" fill="#FF8166"/>
<path d="M242.582 22.0234C243.011 22.0234 243.44 21.9981 243.894 21.9475C244.802 21.8464 245.408 20.9868 245.206 20.102C245.03 19.3436 244.348 18.8632 243.566 18.9138C240.008 19.2677 237.788 17.5233 236.804 16.0317C236.425 15.4502 235.744 15.1974 235.088 15.3997C234.129 15.6778 233.7 16.8154 234.23 17.6497C235.643 19.8492 238.444 22.0234 242.582 22.0234Z" fill="#FFCA3D"/>
<path d="M43.582 129.693C44.0109 129.693 44.4399 129.667 44.8941 129.617C45.8025 129.516 46.4081 128.656 46.2062 127.771C46.0296 127.013 45.3483 126.532 44.5661 126.583C41.0081 126.937 38.7876 125.192 37.8035 123.701C37.425 123.119 36.7437 122.867 36.0876 123.069C35.1288 123.347 34.6998 124.485 35.2297 125.319C36.6428 127.518 39.4437 129.693 43.582 129.693Z" fill="#FFCA3D"/>
<path d="M319.822 20.2031C320.251 20.2031 320.68 20.1778 321.134 20.1272C322.042 20.0261 322.648 19.1665 322.446 18.2817C322.269 17.5232 321.588 17.0429 320.806 17.0935C317.248 17.4474 315.027 15.703 314.043 14.2114C313.665 13.6299 312.983 13.3771 312.327 13.5794C311.369 13.8575 310.94 14.9951 311.469 15.8294C312.883 18.0541 315.683 20.2031 319.822 20.2031Z" fill="#FFCA3D"/>
<path d="M290.697 28.7221C290.753 29.1473 290.835 29.5691 290.945 30.0126C291.166 30.8997 292.098 31.3864 292.948 31.0693C293.677 30.7939 294.063 30.0551 293.909 29.2864C293.088 25.8065 294.523 23.3749 295.872 22.2022C296.398 21.7501 296.559 21.0414 296.271 20.4178C295.869 19.5041 294.685 19.2293 293.928 19.8649C291.909 21.5597 290.15 24.6201 290.697 28.7221Z" fill="#FFCA3D"/>
</svg>

<?xml version="1.0" encoding="utf-8"?>
<!-- Generator: Adobe Illustrator 24.2.1, SVG Export Plug-In . SVG Version: 6.00 Build 0)  -->
<svg version="1.1" id="Capa_1" xmlns="http://www.w3.org/2000/svg" xmlns:xlink="http://www.w3.org/1999/xlink" x="0px" y="0px"
	 viewBox="0 0 323 142" style="enable-background:new 0 0 323 142;" xml:space="preserve">
<style type="text/css">
	.st0{fill:#0948F0;}
	.st1{fill:#FD5C00;}
</style>
<path class="st0" d="M12.6,137.9c-0.9-2.7-3.4-5.8-8.3-6.6c-0.9-0.1-1.7,0.5-1.7,1.4c0,0.8,0.5,1.4,1.3,1.5c3.5,0.5,5.3,2.8,5.8,4.5
	c0.2,0.6,0.8,1.1,1.5,1C12.2,139.8,12.9,138.8,12.6,137.9z"/>
<path class="st1" d="M3.6,16.4c2-2,3.7-5.7,2.2-10.3C5.5,5.2,4.5,4.8,3.7,5.1C3,5.5,2.6,6.3,2.9,7c1.1,3.4-0.2,5.9-1.4,7.2
	C1,14.7,0.9,15.4,1.2,16C1.7,16.9,2.9,17.1,3.6,16.4z"/>
<path class="st0" d="M306.9,138.8c2.8-0.8,5.9-3.3,6.8-8.1c0.2-0.9-0.5-1.7-1.4-1.8c-0.8-0.1-1.4,0.5-1.6,1.2
	c-0.7,3.5-2.9,5.2-4.6,5.7c-0.7,0.2-1.1,0.8-1.1,1.5C305,138.4,306,139.1,306.9,138.8z"/>
<path class="st1" d="M11.4,100.7c-2.7-1-6.7-0.8-10.3,2.6c-0.7,0.6-0.6,1.7,0.1,2.2c0.6,0.5,1.5,0.4,2-0.1c2.6-2.5,5.4-2.5,7.1-1.9
	c0.6,0.2,1.3,0,1.7-0.6C12.7,102.1,12.4,101,11.4,100.7z"/>
<path class="st1" d="M305.3,58c2-2,3.7-5.7,2.2-10.3c-0.3-0.9-1.3-1.3-2.1-0.9c-0.7,0.3-1,1.1-0.8,1.8c1.1,3.4-0.2,5.9-1.4,7.2
	c-0.5,0.5-0.6,1.2-0.3,1.8C303.4,58.5,304.6,58.7,305.3,58z"/>
<path class="st1" d="M45.8,5.4c2.3,1.7,6.2,2.7,10.6,0.4c0.8-0.4,1-1.5,0.5-2.2c-0.4-0.6-1.3-0.8-2-0.5C51.8,4.8,49.1,4,47.6,3
	c-0.6-0.4-1.3-0.4-1.8,0.1C45,3.6,45,4.8,45.8,5.4z"/>
<path class="st1" d="M276.1,9.8c2.8-0.8,5.9-3.3,6.8-8.1c0.2-0.9-0.5-1.7-1.4-1.8c-0.8-0.1-1.4,0.5-1.6,1.2
	c-0.7,3.5-2.9,5.2-4.6,5.7c-0.7,0.2-1.1,0.8-1.1,1.5C274.1,9.4,275.1,10.1,276.1,9.8z"/>
<path class="st0" d="M242.6,22c0.4,0,0.9,0,1.3-0.1c0.9-0.1,1.5-1,1.3-1.8c-0.2-0.8-0.9-1.2-1.6-1.2c-3.6,0.4-5.8-1.4-6.8-2.9
	c-0.4-0.6-1.1-0.8-1.7-0.6c-1,0.3-1.4,1.4-0.9,2.2C235.6,19.8,238.4,22,242.6,22z"/>
<path class="st0" d="M43.6,129.7c0.4,0,0.9,0,1.3-0.1c0.9-0.1,1.5-1,1.3-1.8c-0.2-0.8-0.9-1.2-1.6-1.2c-3.6,0.4-5.8-1.4-6.8-2.9
	c-0.4-0.6-1.1-0.8-1.7-0.6c-1,0.3-1.4,1.4-0.9,2.2C36.6,127.5,39.4,129.7,43.6,129.7z"/>
<path class="st0" d="M319.8,20.2c0.4,0,0.9,0,1.3-0.1c0.9-0.1,1.5-1,1.3-1.8c-0.2-0.8-0.9-1.2-1.6-1.2c-3.6,0.4-5.8-1.4-6.8-2.9
	c-0.4-0.6-1.1-0.8-1.7-0.6c-1,0.3-1.4,1.4-0.9,2.2C312.9,18.1,315.7,20.2,319.8,20.2z"/>
<path class="st0" d="M290.7,28.7c0.1,0.4,0.1,0.8,0.2,1.3c0.2,0.9,1.2,1.4,2,1.1c0.7-0.3,1.1-1,1-1.8c-0.8-3.5,0.6-5.9,2-7.1
	c0.5-0.5,0.7-1.2,0.4-1.8c-0.4-0.9-1.6-1.2-2.3-0.6C291.9,21.6,290.1,24.6,290.7,28.7z"/>
</svg>
